X: 0581
T: KELLEY'S HORNPIPE
B: Oliver Ditson "The Boston Collection of Instrumental Music" 1910 p.58 #1
F: http://conquest.imslp.info/files/imglnks/usimg/8/8f/IMSLP175643-PMLP309456-bostoncollection00bost_bw.pdf
M: 2/4
L: 1/16
K: G
dc |\
BGdB gdBd | cAag fedc | BGdB gdBd | cBAG DFAc |\
BGdB gdBd | cAag fedc | Bgfg ecAF | G2B2G2 :|
|: Bc |\
dcBA GBdg | e2c2c2e2 | dcBc Afag | f2d2d2c2 | BGdG BGdG | AFDF AFcA | Bgfg ecAF | G2B2G2 :|

%%sep 1 1 500
%%sep 1 1 500
